X:1
T:In Kamf
C:David Edelstadt
O:Yiddish
M:C
L:1/8
Q:1/4=96
K:Ab
C2|F2 F>A c2 B>A|(G3=E) C z _E|A2 A>A B2 e>d|
c6 c>c|c2 A>c e2 d>c|(B2 ed) c2 z C |
F>F F>A c2 G>A|(F4c3) c|c>c =B>c a2 g>a|f6|]


chords: https://chordify.net/chords/daniel-kahn-the-painted-bird-songs/in-kamf-chords
